X: 13117
T: Fires At Midnight
R: waltz
M: 3/4
K: Gmajor
GA|B4 BA|G4 GE|D4 GB|A4 GA|
B4 BA|G4 GE|D4 E2|G4:|
Bd|e4 ed|B4 Bd|e4 g2|
a4 ag|e4 ed|B4 Bd|A2 G2 B2|
A4 GA|B4 BA|G4 GE|D4 GB|
A4 GA|B4 BA|G4 GE|D4 E2|G4||

